X: 1
T:Maestro and the Minions  "Arr. Bill Boxall"
M:6/8
L:1/8
Q:80
C:Robert Worrall
S:Waltz
K:HP
| {g}A|:
{GAG}Aa/2g/2{a}f/2e/2{g}dA{GAG}A|
{g}G{a}g/2a/2g/2f/2{gBG}B2{gcd}c/2B/2|  !
{AGAG}A{g}e/2A/2{d}c/2e/2{gf}g{a}e{A}e|
{gde}d/2c/2{g}d/2e/2{g}f/2g/2{ef}e2{g}f/2e/2| |
{g}G/2A/2a/2g/2{a}f/2e/2{g}dA{GAG}A|  !
{g}G/2B/2g/2a/2g/2f/2{gBG}B2{gcd}c/2B/2|
{g}A/2{d}c/2{g}e/2A/2{d}c/2e/2{a}g/2f/2{g}e/2g/2{a}f/2e/2|
{g}d/2e/2{g}f/2g/2{a}e/2c/2"hcd"d2{g}|1 f:| |:  !
{g}f/2g/2|
{ag}a{g}a/2g/2{a}f/2e/2{Gdc}dA{GAG}A|
{g}G{a}g/2a/2g/2f/2{gBG}B2{g}e/2f/2|  !
{gf}g{f}g/2f/2{g}e/2d/2{gcd}c{e}A{GAG}A|
{gde}d/2c/2{g}d/2e/2{g}f/2g/2{ef}e2{g}|1 f/2g/2|2 f| |
|1 {ag}a{g}a/2g/2{a}f/2e/2{Gdc}dA{GAG}A|  !
{a}g/2f/2{a}g/2a/2g/2f/2{gBG}B2{gcd}c/2B/2|
{g}A/2{d}c/2{g}e/2A/2{d}c/2e/2{a}g/2f/2{g}e/2g/2{a}f/2e/2|
{g}d/2e/2{g}f/2g/2{a}e/2c/2"hcd"d2:| |  !
|2 {GAG}Aa/2g/2{a}f/2e/2{g}dA{GAG}A|
{g}G/2B/2g/2a/2g/2f/2{gBG}B2{gcd}c/2B/2|
{g}A/2{d}c/2{g}e/2A/2{d}c/2e/2{a}g/2f/2{g}e/2g/2{a}f/2e/2|  !
{g}d/2e/2{g}f/2g/2{a}e/2c/2"hcd"d2|]
